X:36
T:She Rose and Loote me in. JClw.36
M:4/4
L:1/8
Q:1/4=120
S:J.Clews MS,Stoke-upon-Tern,Shrops.1832
N:Adagio written below first line, above the B music
N:but probably refers to whole piece.
A:N. Shropshire
Z:Neil Brookes 2006
K:Gm
B>A|G2 d>ed2g2|{g}^f3=ed2_f2|edc.B. ABcB|B2A2z2B>A|!
G2 d>ed2g2|{g}^f3ga2 d>e|d2a2bag^f|g6::!
cedc BdcB|{c}B2A2z2g>a|babg ^f=efd|g>^fgab2d2|c>B c2d2T^f2|g6:|

